X:1
T:Title
%%score [ 1 2 3 4 ]
L:1/8
Q:1/4=150
M:4/4
K:C
V:1 treble nm="Soprano" snm="S"
V:2 treble nm="Contralto" snm="C"
V:3 treble-8 nm="Tenor" snm="T"
V:4 bass nm="Bajo" snm="B"
V:1
 z8 | z8 | z8 | z4 G2 GG | A2 B2 c3 c | B2 c2 A4 | G4 z4 | z8 | z2 F2 G3 F | E2 F2 D4 | %10
w: |||Lla- man a|Te- re- si- ca|y no vie-|ne,||que ma- la|no- che tie-|
 C2 c2 d3 c | B2 c2 A2 B2- | BA G4 ^F2 | G8 | z8 | z2 G4 A2 | G2 F2 G3 F | E2 G2 F2 E2 | z8 | %19
w: ne, que ma- la|no- che tie- *||ne.||Llá- ma-|la su ma- dre|ye- lla ca- lla,||
 z2 G2 A2 G2- | G2 F2 G2 E2 | F2 G2 E2 D2 | z8 | z4 z2 F2 | G3 F E2 F2 | D4 C2 c2 | d3 c B2 c2 | %27
w: ju- ra- men-|* to ha- ce|de ma- ta- lla.||Que|ma- la no- che|tie- ne, que|ma- la no- che|
 A2 B2 z4 | c2 d3 c B2 | c2 A2 B4 | z2 c2 d3 c | B2 c2 A2 B2- | BA G4 ^F2 | G8 |] %34
w: tie- ne.|Que ma- la no-|che tie- ne,|que ma- la|no- che tie- *||ne.|
V:2
 z8 | z8 | C2 CC D2 E2 | F3 F E4 | F2 D2 E2 CD | EF G4 F2 | G2 E2 F3 E | D2 E2 C4 | D4 z4 | z8 | %10
w: ||Lla- man a Te- re-|si- ca y|no _ vie- * *|* * ne, que|ma- la no- che|tie- * *|ne,||
 z4 F2 G2- | GF E2 F2 D2- | D2 E2 D4 | z2 D4 E2 | D2 C2 D3 C | B,2 B,2 C2 A,2 | z8 | z8 | %18
w: que ma-|* * la no- che|_ tie- ne.|Llá- ma-|la su ma- dre|ye- lla ca- lla,|||
 z2 D2 E2 D2- | D2 C2 A,2 B,2 | C2 A,2 G,2 A,2 | z4 z2 F2 | G2 F2 D2 E2- | ED C4 B,2 | C4 z4 | z8 | %26
w: ju- ra- men-|* to ha- ce|de ma- ta- lla.|Que|ma- la no- *|* che tie- *|ne,||
 F2 G3 F E2 | F2 D4 E2 | z2 F2 G3 F | E2 F2 D4 | E2 z2 F2 G2- | GF E2 F2 D2- | D2 E2 D4 | D8 |] %34
w: que ma- la no-|che tie- ne.|Que ma- la|no- che tie-|ne, ¡que ma-|* * la no- che|_ le de|Dios!|
V:3
 G2 GG A2 B2 | c3 c B2 c2 | A3 GAB c2- | c2 B2 c4 | z8 | z2 c2 d3 c | B2 c2 A4 | B4 z4 | %8
w: Lla- man a Te- re-|si- ca y no|vie- * * * *|* * ne,||que ma- la|no- che tie-|ne,|
 z2 d2 e3 d | c2 d2 B4 | c4 z4 | z2 c2 d3 c | B2 c2 A4 | G8 | z8 | z4 z2 c2- | c2 d2 c2 B2 | %17
w: que ma- la|no- che tie-|ne,|que ma- la|no- che tie-|ne.||Llá-|* ma- la su|
 c3 B A2 B2 | c2 B2 z4 | z4 z2 d2 | e2 d4 c2 | d2 B2 c2 d2 | B2 A2 z4 | z4 z2 d2 | e3 d c2 d2 | %25
w: ma- dre ye- lla|ca- lla,|ju-|ra- men- to|ha- ce de ma-|ta- lla.|Que|ma- la no- che|
 B4 c4 | z4 z2 c2 | d3 c B2 c2 | A4 B2 z2 | c2 d3 c B2 | c2 A4 B2 | z2 c2 d3 c | B2 c2 A4 | G8 |] %34
w: tie- ne,|que|ma- la no- che|tie- ne.|¡que ma- * la|no- * che|le de _|Dios, le de|Dios!|
V:4
 z8 | C,2 C,C, D,2 E,2 | F,3 F, F,2 E,2 | D,4 C,4 | z8 | z8 | z4 z2 F,2 | G,3 F, E,2 F,2 | %8
w: |Lla- man a Te- re-|si- ca y no|vie- ne,|||que|ma- la no- che|
 D,4 C,4 | z2 F,2 G,3 F, | E,2 F,2 D,2 G,2 | z4 F,2 G,2- | G,F,E,C, D,4 | G,4 z2 G,2- | %14
w: tie- ne,|que ma- la|no- che tie- ne,|que ma-|* la no- che tie-|ne. Llá-|
 G,2 A,2 G,2 F,2 | G,3 F, E,2 F,2 | E,2 D,2 z4 | z4 z2 G,2 | A,2 G,4 F,2 | G,2 E,2 F,2 G,2 | %20
w: * ma- la su|ma- dre ye- lla|ca- lla,|ju-|ra- men- to|ha- ce de ma-|
 C,2 D,2 z4 | z8 | z2 F,2 G,3 F, | E,2 F,2 D,2 G,2 | z4 z2 F,2 | G,3 F, E,2 F,2 | D,2 G,2 z4 | %27
w: ta- lla.||Que ma- la|no- che tie- ne,|que|ma- la no- che|tie- ne.|
 F,2 G,3 F, E,2 | F,2 D,2 G,4 | z2 F,2 G,3 F, | E,2 F,2 D,2 G,2 | z4 F,2 G,2- | G,F,E,C, D,4 | %33
w: Que ma- la no-|che tie- ne,|que ma- la|no- che tie- ne,|que ma-|* la no- che tie-|
 G,,8 |] %34
w: ne.|

